X: 40177
T: Time Has Not Been Kind
R: jig
M: 6/8
K: Aminor
|:"Am" ecA "Am" ecA|"G" Bcd "C"Bcc|"Am"ecA "Am" ecA|"G" Bcd "C" c3|
"Am" cde "F" fed|"G" Bcd "Am" Bcc|"F"fed "Am" ecA|"G" BAG "Am" A3:|
|:"Am" aec "Am"Ace|"G" Bcd "C" Bcc|"Am" aec "Am"ecA|"G" Bcd "C" c3|
"Am" cde "F" fed|"G" Bcd "Am" Bcc|"F"fed "Am" ecA|"G" BAG "Am" A3:|
|:"G" GAB "C" Bcc|"G" dcB "C" Bcc|"G" GAB "C" Bcc|"G"dcB "C" c3|
"Am" aec "Am" Ace|"G" dcB "F" Bcc|"Am"aec "Am"ecA|"G" BAG "Am"A3:|

